icons/inbox-plus.svg

<svg xmlns="http://www.w3.org/2000/svg" width="24" height="24" viewBox="0 0 24 24">
  <path d="M6,16 L6.11662113,16.0067277 C6.61395981,16.0644928 7,16.4871642 7,17 C7,18.5976809 8.24891996,19.9036609 9.82372721,19.9949073 L10,20 L14,20 L14.1762728,19.9949073 C15.6927538,19.9070404 16.9070404,18.6927538 16.9949073,17.1762728 L17,17 L17.0067277,16.8833789 C17.0600494,16.424297 17.424297,16.0600494 17.8833789,16.0067277 L18,16 L22,16 L22,20 C22,21.1045695 21.1045695,22 20,22 L4,22 C2.8954305,22 2,21.1045695 2,20 L2,16 L6,16 Z M20,2 C21.1045695,2 22,2.8954305 22,4 L22,14 L18,14 L17.8237272,14.0050927 C16.24892,14.0963391 15,15.4023191 15,17 C15,17.5128358 14.6139598,17.9355072 14.1166211,17.9932723 L14,18 L10,18 L9.88337887,17.9932723 C9.42429701,17.9399506 9.06004937,17.575703 9.00672773,17.1166211 L9,17 L8.99490731,16.8237272 C8.90704038,15.3072462 7.69275384,14.0929596 6.17627279,14.0050927 L6,14 L2,14 L2,4 C2,2.8954305 2.8954305,2 4,2 L20,2 Z M12,5 C11.4477153,5 11,5.44771525 11,6 L11,6 L10.999,8 L9,8 L8.88337887,8.00672773 C8.38604019,8.06449284 8,8.48716416 8,9 C8,9.55228475 8.44771525,10 9,10 L9,10 L10.999,10 L11,12 L11.0067277,12.1166211 C11.0644928,12.6139598 11.4871642,13 12,13 C12.5522847,13 13,12.5522847 13,12 L13,12 L12.999,10 L15,10 L15.1166211,9.99327227 C15.6139598,9.93550716 16,9.51283584 16,9 C16,8.44771525 15.5522847,8 15,8 L15,8 L12.999,8 L13,6 L12.9932723,5.88337887 C12.9355072,5.38604019 12.5128358,5 12,5 Z"/>
</svg>

<svg xmlns="http://www.w3.org/2000/svg" viewBox="0 0 24 24">
  <path d="M6 16h.12A1 1 0 0 1 7 17a3 3 0 0 0 2.82 3h4.36a3 3 0 0 0 2.81-2.82L17 17v-.12a1 1 0 0 1 .88-.87L18 16h4v4a2 2 0 0 1-2 2H4a2 2 0 0 1-2-2v-4h4zM20 2a2 2 0 0 1 2 2v10h-4.18A3 3 0 0 0 15 17a1 1 0 0 1-.88 1H9.88a1 1 0 0 1-.87-.88L9 17v-.18a3 3 0 0 0-2.82-2.81L6 14H2V4c0-1.1.9-2 2-2h16zm-8 3a1 1 0 0 0-1 1v2H8.88A1 1 0 0 0 9 10h2v2.12a1 1 0 0 0 2-.12v-2h2.12A1 1 0 0 0 15 8h-2V5.88A1 1 0 0 0 12 5z"/>
</svg>
